X: 599
T: Going to Jail
B: jims roots
M:4/4
L:1/8
Q: 1/4=100
K:G
V:1 
"E"e^deB- B^GE2 | e^deB- B^GE2 | "A"A^cea- agec | A^cea- ag3 |
"D"fd3 cdeg | fd3 cA_B=B | "G"G2B2G2B2 | AB2B B2GF ||
"E"^GEFG EFGE | F^GEF GEFG | "A"A^cea- agec | A^cea- ag3 |
"D"fd3 cdeg | fd3 cA_B=B | "G"G2B2 g3a | g8 ||
|: "G"b2b2 b2b2 | b^ab2 c'b3 | "A"a2 a3^g ag | abag e^de=f | "D"^fb2 a- afe=f |
^fb2 a- afef |[1"G"g2g2 gdef | gfgd- dcBA :|[2 "G"g2e2dcB2 | G8|]
% abcbook-tune_id 6298c25d4b9ce41f01a40430


% abcbook-boost 0
% abcbook-tablature 
% abcbook-transpose 
% abcbook-lastupdated 1654178398252
% abcbook-soundfonts 
% abcbook-repeats 1


